X: 17976
T: Hugh Gillespie's
R: mazurka
M: 3/4
K: Amajor
|:E>A|c2 c>BA>c|e2 e2 B>c|d>cd>fe>d|c>e a2E>A|
c2 c>BA>c|e2 e2 B>c|d>cd>BGB|1 B>AA>F:|2 B>AA||
|:ga>g|f2 d>fd>f|f>ec>ec>e|d2 B>dB>d|c>e a2a>g|
(3faf d>fd>f|f>ec>ec>e|d>cd>BG>B|B>AA:|

